picto/restaurant-framed.svg

<svg class="color-immutable" width="30" height="30" viewBox="0 0 30 30" fill="none" xmlns="http://www.w3.org/2000/svg"><path d="M0 0H29.9999V29.9999H0V0Z" fill="#2D327D"/><path d="M25.4999 2.99999C26.3249 2.99999 26.9999 3.67499 26.9999 4.49999V25.4999C26.9999 26.3249 26.3249 26.9999 25.4999 26.9999H4.49999C3.67499 26.9999 2.99999 26.3249 2.99999 25.4999V4.49999C2.99999 3.67499 3.67499 2.99999 4.49999 2.99999H25.4999ZM25.4999 2.62499H4.49999C3.46612 2.62499 2.62499 3.46612 2.62499 4.49999V25.4999C2.62499 26.5338 3.46612 27.3749 4.49999 27.3749H25.4999C26.5338 27.3749 27.3749 26.5338 27.3749 25.4999V4.49999C27.3749 3.46612 26.5338 2.62499 25.4999 2.62499Z" fill="white"/><path d="M13.6878 6.74993C12.9632 6.74993 12.3751 7.33867 12.3751 8.06287V16.4998H13.1257V22.4997C13.1257 23.0177 13.5448 23.4376 14.0631 23.4376C14.5806 23.4376 15.0005 23.0178 15.0005 22.4997V8.06287C15.0005 7.33867 14.4125 6.74993 13.6878 6.74993Z" fill="white"/><path d="M10.2189 6.74993C10.0638 6.74993 9.93821 6.8763 9.93821 7.03132V10.8751H9.37534V7.03132C9.37534 6.8763 9.24896 6.74993 9.09386 6.74993C8.93884 6.74993 8.81246 6.8763 8.81246 7.03132V10.8751H8.25034V7.03132C8.25034 6.8763 8.12404 6.74993 7.96886 6.74993C7.81384 6.74993 7.68747 6.8763 7.68747 7.03132V10.8751H7.12534V7.03132C7.12534 6.8763 6.99897 6.74993 6.84379 6.74993C6.68862 6.74993 6.56224 6.8763 6.56224 7.03132V10.8751C6.56224 10.8826 6.56224 10.8891 6.56224 10.8957C6.56224 11.6515 6.95254 12.3525 7.59349 12.7507V22.4997C7.59349 23.0178 8.01424 23.4377 8.53076 23.4377C9.04826 23.4377 9.46924 23.0178 9.46924 22.4997V12.7507C10.1101 12.3525 10.5003 11.6515 10.5003 10.8957C10.5003 10.8891 10.5003 10.8826 10.5003 10.8751V7.03132C10.5003 6.8763 10.374 6.74993 10.2189 6.74993Z" fill="white"/></svg>

<svg class="color-immutable" width="30" height="30" viewBox="0 0 30 30" fill="none" xmlns="http://www.w3.org/2000/svg"><path d="M0 0h30v30H0V0Z" fill="#2D327D"/><path d="M25.5 3c.825 0 1.5.675 1.5 1.5v21c0 .825-.675 1.5-1.5 1.5h-21c-.825 0-1.5-.675-1.5-1.5v-21C3 3.675 3.675 3 4.5 3h21Zm0-.375h-21A1.877 1.877 0 0 0 2.625 4.5v21c0 1.034.841 1.875 1.875 1.875h21a1.877 1.877 0 0 0 1.875-1.875v-21A1.877 1.877 0 0 0 25.5 2.625Z" fill="#fff"/><path d="M13.688 6.75c-.725 0-1.313.589-1.313 1.313V16.5h.75v6a.937.937 0 1 0 1.876 0V8.063c0-.724-.588-1.313-1.313-1.313ZM10.219 6.75a.281.281 0 0 0-.28.281v3.844h-.564V7.031a.282.282 0 0 0-.563 0v3.844H8.25V7.031a.282.282 0 0 0-.563 0v3.844h-.562V7.031a.282.282 0 0 0-.563 0v3.864c0 .757.39 1.457 1.031 1.856V22.5a.938.938 0 0 0 1.876 0v-9.75a2.183 2.183 0 0 0 1.031-1.854V7.03a.282.282 0 0 0-.281-.281Z" fill="#fff"/></svg>
